src/img/external-link-svgrepo-com.svg

<!DOCTYPE svg PUBLIC "-//W3C//DTD SVG 1.1//EN" "http://www.w3.org/Graphics/SVG/1.1/DTD/svg11.dtd">
<!-- Uploaded to: SVG Repo, www.svgrepo.com, Transformed by: SVG Repo Mixer Tools -->
<svg width="1em" height="1em" viewBox="0 0 24 24" fill="none" xmlns="http://www.w3.org/2000/svg">

<g id="SVGRepo_bgCarrier" stroke-width="0"/>

<g id="SVGRepo_tracerCarrier" stroke-linecap="round" stroke-linejoin="round"/>

<g id="SVGRepo_iconCarrier"> <g id="Interface / External_Link"> <path id="Vector" d="M10.0002 5H8.2002C7.08009 5 6.51962 5 6.0918 5.21799C5.71547 5.40973 5.40973 5.71547 5.21799 6.0918C5 6.51962 5 7.08009 5 8.2002V15.8002C5 16.9203 5 17.4801 5.21799 17.9079C5.40973 18.2842 5.71547 18.5905 6.0918 18.7822C6.5192 19 7.07899 19 8.19691 19H15.8031C16.921 19 17.48 19 17.9074 18.7822C18.2837 18.5905 18.5905 18.2839 18.7822 17.9076C19 17.4802 19 16.921 19 15.8031V14M20 9V4M20 4H15M20 4L13 11" stroke="#0b8a8f" stroke-width="2" stroke-linecap="round" stroke-linejoin="round"/> </g> </g>

</svg>

<svg width="1em" height="1em" viewBox="0 0 24 24" fill="none" xmlns="http://www.w3.org/2000/svg">
  <path d="M10 5H8.2c-1.12 0-1.68 0-2.108.218a1.999 1.999 0 0 0-.874.874C5 6.52 5 7.08 5 8.2v7.6c0 1.12 0 1.68.218 2.108a2 2 0 0 0 .874.874c.427.218.987.218 2.105.218h7.606c1.118 0 1.677 0 2.104-.218.377-.192.683-.498.875-.874.218-.428.218-.987.218-2.105V14m1-5V4m0 0h-5m5 0-7 7" stroke="#0b8a8f" stroke-width="2" stroke-linecap="round" stroke-linejoin="round"/>
</svg>
